KiCAD-base/EtherkitKicadLibrary/FCI_10118194-0001LF.svg

<?xml version="1.0" encoding="UTF-8" standalone="no"?>
<!-- Created with Inkscape (http://www.inkscape.org/) -->

<svg
   xmlns:dc="http://purl.org/dc/elements/1.1/"
   xmlns:cc="http://creativecommons.org/ns#"
   xmlns:rdf="http://www.w3.org/1999/02/22-rdf-syntax-ns#"
   xmlns:svg="http://www.w3.org/2000/svg"
   xmlns="http://www.w3.org/2000/svg"
   xmlns:sodipodi="http://sodipodi.sourceforge.net/DTD/sodipodi-0.dtd"
   xmlns:inkscape="http://www.inkscape.org/namespaces/inkscape"
   width="2.1948307mm"
   height="1.6087521mm"
   viewBox="0 0 7.776959 5.7003028"
   id="svg4138"
   version="1.1"
   inkscape:version="0.92.3 (2405546, 2018-03-11)"
   sodipodi:docname="FCI_10118194-0001LF.svg">
  <defs
     id="defs4140" />
  <sodipodi:namedview
     id="base"
     pagecolor="#ffffff"
     bordercolor="#666666"
     borderopacity="1.0"
     inkscape:pageopacity="0.0"
     inkscape:pageshadow="2"
     inkscape:zoom="32"
     inkscape:cx="0.67387348"
     inkscape:cy="2.8451541"
     inkscape:document-units="px"
     inkscape:current-layer="g11909"
     showgrid="false"
     inkscape:window-width="636"
     inkscape:window-height="1056"
     inkscape:window-x="476"
     inkscape:window-y="0"
     inkscape:window-maximized="0" />
  <metadata
     id="metadata4143">
    <rdf:RDF>
      <cc:Work
         rdf:about="">
        <dc:format>image/svg+xml</dc:format>
        <dc:type
           rdf:resource="http://purl.org/dc/dcmitype/StillImage" />
        <dc:title></dc:title>
      </cc:Work>
    </rdf:RDF>
  </metadata>
  <g
     inkscape:label="Vrstva 1"
     inkscape:groupmode="layer"
     id="pin"
     transform="translate(3.888437,-1047.6619)" />
  <g
     inkscape:label="Vrstva 1"
     inkscape:groupmode="layer"
     transform="translate(3.888437,-1045.1219)"
     id="g11891" />
  <g
     inkscape:label="Vrstva 1"
     inkscape:groupmode="layer"
     transform="translate(3.888437,-1042.5819)"
     id="g11897" />
  <g
     inkscape:label="Vrstva 1"
     inkscape:groupmode="layer"
     transform="translate(3.888437,-1040.0419)"
     id="g11903" />
  <g
     inkscape:label="Vrstva 1"
     inkscape:groupmode="layer"
     transform="translate(3.888437,-1037.5019)"
     id="g11909">
    <path
       style="opacity:1;fill:#d6dcdb;fill-opacity:1;stroke:#99abb0;stroke-width:0.09999998;stroke-linecap:butt;stroke-linejoin:miter;stroke-miterlimit:4;stroke-dasharray:none;stroke-opacity:1"
       d="m -3.4505394,1042.0253 v 0.3125 l -0.3671875,0.3672 0.1875,0.1875 0.4238281,-0.4238 0.021484,-0.043 v -0.4004 z"
       id="path29864"
       inkscape:connector-curvature="0"
       sodipodi:nodetypes="cccccccc" />
    <path
       sodipodi:nodetypes="cccccccc"
       inkscape:connector-curvature="0"
       id="path36365"
       d="m 3.4506246,1042.0253 v 0.3125 l 0.3671875,0.3672 -0.1875,0.1875 -0.4238281,-0.4238 -0.021484,-0.043 v -0.4004 z"
       style="opacity:1;fill:#d6dcdb;fill-opacity:1;stroke:#99abb0;stroke-width:0.09999998;stroke-linecap:butt;stroke-linejoin:miter;stroke-miterlimit:4;stroke-dasharray:none;stroke-opacity:1" />
    <rect
       style="opacity:1;fill:#d6dcdb;fill-opacity:1;stroke:#99abb0;stroke-width:0.1;stroke-linecap:butt;stroke-linejoin:miter;stroke-miterlimit:4;stroke-dasharray:none;stroke-opacity:1"
       id="rect36287"
       width="6.9000001"
       height="4.5999999"
       x="-3.45"
       y="1037.5519"
       rx="0"
       ry="0" />
    <path
       inkscape:connector-curvature="0"
       style="opacity:1;fill:#d6dcdb;fill-opacity:1;stroke:#99abb0;stroke-width:0.1;stroke-linecap:butt;stroke-linejoin:miter;stroke-miterlimit:4;stroke-dasharray:none;stroke-opacity:1"
       d="m -2.9492188,1042.1523 v 0.3008 l 0.25,0.3008 h 5.3984376 l 0.25,-0.3008 v -0.3008 z"
       id="rect36367" />
    <path
       style="fill:none;fill-rule:evenodd;stroke:#99abb0;stroke-width:0.1;stroke-linecap:butt;stroke-linejoin:miter;stroke-miterlimit:4;stroke-dasharray:none;stroke-opacity:1"
       d="M -2.927864,1042.4641 H 2.9333883"
       id="path36374"
       inkscape:connector-curvature="0" />
    <rect
       style="opacity:1;fill:#000000;fill-opacity:1;stroke:#99abb0;stroke-width:0.10000002;stroke-linecap:butt;stroke-linejoin:miter;stroke-miterlimit:4;stroke-dasharray:none;stroke-opacity:1"
       id="rect36390"
       width="1.1"
       height="1.65"
       x="-2.925"
       y="1039.7552"
       rx="0.2"
       ry="0.2" />
    <rect
       ry="0.2"
       rx="0.2"
       y="1039.7552"
       x="1.825"
       height="1.65"
       width="1.1"
       id="rect36392"
       style="opacity:1;fill:#000000;fill-opacity:1;stroke:#99abb0;stroke-width:0.10000002;stroke-linecap:butt;stroke-linejoin:miter;stroke-miterlimit:4;stroke-dasharray:none;stroke-opacity:1" />
    <path
       style="opacity:1;fill:#000000;fill-opacity:1;stroke:#99abb0;stroke-width:0.10000002;stroke-linecap:butt;stroke-linejoin:miter;stroke-miterlimit:4;stroke-dasharray:none;stroke-opacity:1"
       d="m -2.9257812,1047.7129 v 0.5996 0.2988 c 0,0.111 0.090372,0.2012 0.2011718,0.2012 h 0.2988282 1.2011718 c 0.1108,0 0.1992188,-0.09 0.1992188,-0.2012 v -0.2988 c 0,-0.111 -0.088419,-0.2012 -0.1992188,-0.2012 h -1 v -0.3984 z"
       transform="translate(0,-10.16)"
       id="rect36394"
       inkscape:connector-curvature="0" />
    <path
       id="path36401"
       d="m 2.9263906,1037.5529 v 0.5996 0.2988 c 0,0.111 -0.090372,0.2012 -0.2011718,0.2012 H 2.4263906 1.2252188 c -0.1108,0 -0.1992188,-0.09 -0.1992188,-0.2012 v -0.2988 c 0,-0.111 0.088419,-0.2012 0.1992188,-0.2012 h 1 v -0.3984 z"
       style="opacity:1;fill:#000000;fill-opacity:1;stroke:#99abb0;stroke-width:0.10000002;stroke-linecap:butt;stroke-linejoin:miter;stroke-miterlimit:4;stroke-dasharray:none;stroke-opacity:1"
       inkscape:connector-curvature="0" />
  </g>
  <rect
     style="opacity:0.95;fill:#ff0000;fill-opacity:1;fill-rule:nonzero;stroke:none;stroke-width:0.98299998;stroke-linecap:round;stroke-linejoin:bevel;stroke-miterlimit:4;stroke-dasharray:none;stroke-opacity:1"
     id="origin"
     width="1"
     height="1"
     x="3.888437"
     y="4.7003026" />
</svg>

<?xml version="1.0" encoding="UTF-8" standalone="no"?>
<!-- Created with Inkscape (http://www.inkscape.org/) -->

<svg
   xmlns:dc="http://purl.org/dc/elements/1.1/"
   xmlns:cc="http://creativecommons.org/ns#"
   xmlns:rdf="http://www.w3.org/1999/02/22-rdf-syntax-ns#"
   xmlns:svg="http://www.w3.org/2000/svg"
   xmlns="http://www.w3.org/2000/svg"
   xmlns:sodipodi="http://sodipodi.sourceforge.net/DTD/sodipodi-0.dtd"
   xmlns:inkscape="http://www.inkscape.org/namespaces/inkscape"
   width="210mm"
   height="297mm"
   viewBox="0 0 744.09448819 1052.3622047"
   id="svg4138"
   version="1.1"
   inkscape:version="0.91 r13725"
   sodipodi:docname="FCI_10118194-0001LF.svg">
  <defs
     id="defs4140" />
  <sodipodi:namedview
     id="base"
     pagecolor="#ffffff"
     bordercolor="#666666"
     borderopacity="1.0"
     inkscape:pageopacity="0.0"
     inkscape:pageshadow="2"
     inkscape:zoom="32"
     inkscape:cx="-3.4737926"
     inkscape:cy="1.778514"
     inkscape:document-units="px"
     inkscape:current-layer="g11909"
     showgrid="false"
     inkscape:window-width="1916"
     inkscape:window-height="1026"
     inkscape:window-x="4"
     inkscape:window-y="0"
     inkscape:window-maximized="0" />
  <metadata
     id="metadata4143">
    <rdf:RDF>
      <cc:Work
         rdf:about="">
        <dc:format>image/svg+xml</dc:format>
        <dc:type
           rdf:resource="http://purl.org/dc/dcmitype/StillImage" />
        <dc:title></dc:title>
      </cc:Work>
    </rdf:RDF>
  </metadata>
  <g
     inkscape:label="Vrstva 1"
     inkscape:groupmode="layer"
     id="pin" />
  <g
     inkscape:label="Vrstva 1"
     inkscape:groupmode="layer"
     transform="translate(0 2.54)"
     id="g11891" />
  <g
     inkscape:label="Vrstva 1"
     inkscape:groupmode="layer"
     transform="translate(0 5.08)"
     id="g11897" />
  <g
     inkscape:label="Vrstva 1"
     inkscape:groupmode="layer"
     transform="translate(0 7.62)"
     id="g11903" />
  <g
     inkscape:label="Vrstva 1"
     inkscape:groupmode="layer"
     transform="translate(0 10.16)"
     id="g11909">
    <path
       style="opacity:1;fill:#d6dcdb;fill-opacity:1;stroke:#99abb0;stroke-width:0.09999998;stroke-linecap:butt;stroke-linejoin:miter;stroke-miterlimit:4;stroke-dasharray:none;stroke-opacity:1"
       d="m -3.4505394,1042.0253 0,0.3125 -0.3671875,0.3672 0.1875,0.1875 0.4238281,-0.4238 0.021484,-0.043 0,-0.4004 z"
       id="path29864"
       inkscape:connector-curvature="0"
       sodipodi:nodetypes="cccccccc" />
    <path
       sodipodi:nodetypes="cccccccc"
       inkscape:connector-curvature="0"
       id="path36365"
       d="m 3.4506246,1042.0253 0,0.3125 0.3671875,0.3672 -0.1875,0.1875 -0.4238281,-0.4238 -0.021484,-0.043 0,-0.4004 z"
       style="opacity:1;fill:#d6dcdb;fill-opacity:1;stroke:#99abb0;stroke-width:0.09999998;stroke-linecap:butt;stroke-linejoin:miter;stroke-miterlimit:4;stroke-dasharray:none;stroke-opacity:1" />
    <rect
       style="opacity:1;fill:#d6dcdb;fill-opacity:1;stroke:#99abb0;stroke-width:0.1;stroke-linecap:butt;stroke-linejoin:miter;stroke-miterlimit:4;stroke-dasharray:none;stroke-opacity:1"
       id="rect36287"
       width="6.9000001"
       height="4.5999999"
       x="-3.45"
       y="1037.5519"
       rx="0"
       ry="0" />
    <path
       inkscape:connector-curvature="0"
       style="opacity:1;fill:#d6dcdb;fill-opacity:1;stroke:#99abb0;stroke-width:0.1;stroke-linecap:butt;stroke-linejoin:miter;stroke-miterlimit:4;stroke-dasharray:none;stroke-opacity:1"
       d="m -2.9492188,1042.1523 0,0.3008 0.25,0.3008 5.3984376,0 0.25,-0.3008 0,-0.3008 -5.8984376,0 z"
       id="rect36367" />
    <path
       style="fill:none;fill-rule:evenodd;stroke:#99abb0;stroke-width:0.1;stroke-linecap:butt;stroke-linejoin:miter;stroke-miterlimit:4;stroke-dasharray:none;stroke-opacity:1"
       d="m -2.927864,1042.4641 5.8612523,0"
       id="path36374"
       inkscape:connector-curvature="0" />
    <rect
       style="opacity:1;fill:#000000;fill-opacity:1;stroke:#99abb0;stroke-width:0.10000002;stroke-linecap:butt;stroke-linejoin:miter;stroke-miterlimit:4;stroke-dasharray:none;stroke-opacity:1"
       id="rect36390"
       width="1.1"
       height="1.65"
       x="-2.925"
       y="1039.7552"
       rx="0.2"
       ry="0.2" />
    <rect
       ry="0.2"
       rx="0.2"
       y="1039.7552"
       x="1.825"
       height="1.65"
       width="1.1"
       id="rect36392"
       style="opacity:1;fill:#000000;fill-opacity:1;stroke:#99abb0;stroke-width:0.10000002;stroke-linecap:butt;stroke-linejoin:miter;stroke-miterlimit:4;stroke-dasharray:none;stroke-opacity:1" />
    <path
       style="opacity:1;fill:#000000;fill-opacity:1;stroke:#99abb0;stroke-width:0.10000002;stroke-linecap:butt;stroke-linejoin:miter;stroke-miterlimit:4;stroke-dasharray:none;stroke-opacity:1"
       d="M -2.9257812 1047.7129 L -2.9257812 1048.3125 L -2.9257812 1048.6113 C -2.9257812 1048.7223 -2.8354095 1048.8125 -2.7246094 1048.8125 L -2.4257812 1048.8125 L -1.2246094 1048.8125 C -1.1138094 1048.8125 -1.0253906 1048.7221 -1.0253906 1048.6113 L -1.0253906 1048.3125 C -1.0253906 1048.2015 -1.1138094 1048.1113 -1.2246094 1048.1113 L -2.2246094 1048.1113 L -2.2246094 1047.7129 L -2.9257812 1047.7129 z "
       transform="translate(0,-10.16)"
       id="rect36394" />
    <path
       id="path36401"
       d="m 2.9263906,1037.5529 0,0.5996 0,0.2988 c 0,0.111 -0.090372,0.2012 -0.2011718,0.2012 l -0.2988282,0 -1.2011718,0 c -0.1108,0 -0.1992188,-0.09 -0.1992188,-0.2012 l 0,-0.2988 c 0,-0.111 0.088419,-0.2012 0.1992188,-0.2012 l 1,0 0,-0.3984 0.7011718,0 z"
       style="opacity:1;fill:#000000;fill-opacity:1;stroke:#99abb0;stroke-width:0.10000002;stroke-linecap:butt;stroke-linejoin:miter;stroke-miterlimit:4;stroke-dasharray:none;stroke-opacity:1"
       inkscape:connector-curvature="0" />
  </g>
  <rect
     style="opacity:0.95;fill:#ff0000;fill-opacity:1;fill-rule:nonzero;stroke:none;stroke-width:0.98299998;stroke-linecap:round;stroke-linejoin:bevel;stroke-miterlimit:4;stroke-dasharray:none;stroke-opacity:1"
     id="origin"
     width="1"
     height="1"
     x="0"
     y="1052.3622" />
</svg>
